!!!COM: Chemane, Justino Sigualane
!!!CDT: b.1923
!!!OTL: National Anthem, Mozambique
!!!ENC: Davis, Matthew J.
!!Vocal Line Only
**kern
*clefG2
*k[b-e-a-]
*E-:
*M4/4
=1-
1r
=2
1r
=3
1r
=4
1r
==!|:5
!Coda Symbol
4b-
4b-
8.b-
16b-
8.an
16b-
=6
2cc
4..b-
16b-
=7
8.b-
16b-
8.b-
16b-
8.b-
16b-
8.g
16e-
=8
2f
4.f
8r
=9
8.g
16g
8.g
16g
8.g
16a-
8.g
16f
=10
2e-
4B-
8.e-
16g
=11
4b-
4a-
8.g
16e-
8.f
16f
=12
[2e-
4e-
4r
=13
4b-
4b-
8.b-
16b-
8.an
16b-
=14
2cc
4..b-
16b-
=15
8.b-
16b-
8.b-
16b-
8.b-
16b-
8.g
16e-
=16
2f
4.f
8r
=17
4g
4g
8.g
16a-
8.g
16f
=18
2e-
4B-
8.e-
16g
=19
4b-
16a-
8.g
16e-
8.f
16f
=20
[2e-
8e-]
8r
4r
=21
!Chorus
2e-
4B-
8.e-
16g
=22
2b-
2g
=23
8.b-
16b-
8.b-
16cc
4b-
8.g
16g
=24
8.f
16f
8.f
16g
4.f
8r
=25
2e-
4B-
8.e-
16g
=26
2b-
4g
8.e-
16g
=27
4b-
4a-
8.g
16e-
8.f
16f
=28
!First Ending
[2e-
8e-]
8r
4r
!D. Coda
==:|!29
!Second Ending
[2e-
8e-]
8r
4r
==|!
*-
